static/images/step_3.svg

<svg width="215" height="216" viewBox="0 0 215 216" fill="none" xmlns="http://www.w3.org/2000/svg">
<g filter="url(#filter0_d_1120_283)">
<path d="M208 108C208 127.778 202.018 147.112 190.81 163.557C179.602 180.002 163.672 192.819 145.034 200.388C126.396 207.957 105.887 209.937 86.1008 206.078C66.3148 202.22 48.1401 192.696 33.8752 178.711C19.6102 164.725 9.89564 146.907 5.95995 127.509C2.02426 108.111 4.04419 88.0042 11.7643 69.7316C19.4845 51.459 32.5581 35.8412 49.3319 24.853C66.1057 13.8649 85.8263 8 106 8V107.814L208 108Z" fill="#ED5565"/>
</g>
<path d="M106 190C151.287 190 188 153.735 188 109C188 64.265 151.287 28 106 28C60.7126 28 24 64.265 24 109C24 153.735 60.7126 190 106 190Z" fill="white"/>
<path d="M168.702 0.00804589C159.285 0.912565 150.447 4.94705 143.611 11.4622C136.775 17.9774 132.338 26.5944 131.014 35.9265C131.014 36.083 131.014 36.2394 131.014 36.4271C130.506 40.9289 128.25 45.0539 124.729 47.9193C121.207 50.7847 116.699 52.1626 112.17 51.7582C100.438 50.4864 88.5993 52.8732 78.2873 58.5893C67.9752 64.3054 59.6981 73.069 54.5981 83.6707C49.4982 94.2725 47.8268 106.19 49.8146 117.778C51.8023 129.366 57.3513 140.054 65.6958 148.367C74.0403 156.68 84.7689 162.208 96.4012 164.189C108.033 166.169 119.996 164.504 130.638 159.423C141.28 154.342 150.077 146.097 155.814 135.823C161.552 125.55 163.948 113.756 162.671 102.069C162.266 97.5572 163.649 93.0663 166.525 89.5577C169.401 86.0491 173.542 83.8016 178.061 83.2964H178.563C189.473 81.8461 199.374 76.1869 206.137 67.5366C212.9 58.8863 215.984 47.9366 214.724 37.0442C213.464 26.1518 207.962 16.1875 199.402 9.29597C190.842 2.40442 179.907 -0.86343 168.953 0.195766L168.702 0.00804589Z" fill="url(#paint0_linear_1120_283)"/>
<path d="M99.8589 123.284V125.725C99.8589 126.894 99.7427 127.892 99.5103 128.719C99.2847 129.539 98.9565 130.206 98.5259 130.718C98.0952 131.231 97.5791 131.607 96.9775 131.846C96.3828 132.085 95.7163 132.205 94.978 132.205C94.3901 132.205 93.8433 132.13 93.3374 131.979C92.8384 131.829 92.3872 131.593 91.9839 131.272C91.5806 130.951 91.2354 130.537 90.9482 130.031C90.668 129.519 90.4492 128.907 90.292 128.196C90.1416 127.485 90.0664 126.661 90.0664 125.725V123.284C90.0664 122.108 90.1826 121.117 90.415 120.311C90.6475 119.497 90.979 118.837 91.4097 118.332C91.8403 117.819 92.353 117.446 92.9478 117.214C93.5493 116.981 94.2192 116.865 94.9575 116.865C95.5522 116.865 96.0991 116.94 96.5981 117.091C97.104 117.234 97.5552 117.463 97.9517 117.778C98.355 118.092 98.6968 118.502 98.9771 119.008C99.2642 119.507 99.4829 120.112 99.6333 120.823C99.7837 121.527 99.8589 122.348 99.8589 123.284ZM97.3877 126.073V122.915C97.3877 122.32 97.3535 121.797 97.2852 121.346C97.2168 120.888 97.1143 120.502 96.9775 120.188C96.8477 119.866 96.6836 119.606 96.4854 119.408C96.2871 119.203 96.0615 119.056 95.8086 118.967C95.5557 118.872 95.272 118.824 94.9575 118.824C94.5747 118.824 94.2329 118.899 93.9321 119.049C93.6313 119.193 93.3784 119.425 93.1733 119.747C92.9683 120.068 92.811 120.492 92.7017 121.018C92.5991 121.538 92.5479 122.17 92.5479 122.915V126.073C92.5479 126.675 92.582 127.205 92.6504 127.663C92.7188 128.121 92.8213 128.514 92.958 128.842C93.0947 129.163 93.2588 129.43 93.4502 129.642C93.6484 129.847 93.874 129.997 94.127 130.093C94.3867 130.188 94.6704 130.236 94.978 130.236C95.3677 130.236 95.7129 130.161 96.0137 130.011C96.3145 129.86 96.5674 129.621 96.7725 129.293C96.9775 128.958 97.1313 128.524 97.2339 127.991C97.3364 127.458 97.3877 126.818 97.3877 126.073ZM104.965 123.417H106.442C107.016 123.417 107.491 123.318 107.867 123.12C108.25 122.922 108.534 122.648 108.718 122.3C108.903 121.951 108.995 121.551 108.995 121.1C108.995 120.628 108.91 120.225 108.739 119.89C108.575 119.548 108.322 119.285 107.98 119.101C107.645 118.916 107.218 118.824 106.698 118.824C106.261 118.824 105.864 118.913 105.509 119.09C105.16 119.261 104.883 119.507 104.678 119.829C104.473 120.143 104.371 120.519 104.371 120.957H101.889C101.889 120.164 102.098 119.459 102.515 118.844C102.932 118.229 103.499 117.747 104.217 117.398C104.941 117.043 105.755 116.865 106.657 116.865C107.621 116.865 108.462 117.026 109.18 117.347C109.904 117.662 110.468 118.133 110.872 118.762C111.275 119.391 111.477 120.17 111.477 121.1C111.477 121.524 111.377 121.955 111.179 122.392C110.981 122.83 110.687 123.229 110.297 123.592C109.908 123.947 109.422 124.238 108.841 124.463C108.26 124.682 107.587 124.792 106.821 124.792H104.965V123.417ZM104.965 125.345V123.992H106.821C107.696 123.992 108.441 124.094 109.057 124.299C109.679 124.504 110.185 124.788 110.574 125.15C110.964 125.506 111.248 125.913 111.425 126.371C111.61 126.829 111.702 127.314 111.702 127.827C111.702 128.524 111.576 129.146 111.323 129.693C111.077 130.233 110.725 130.691 110.267 131.067C109.809 131.443 109.272 131.727 108.657 131.918C108.048 132.109 107.385 132.205 106.667 132.205C106.025 132.205 105.41 132.116 104.822 131.938C104.234 131.761 103.708 131.498 103.243 131.149C102.778 130.793 102.409 130.353 102.135 129.826C101.869 129.293 101.735 128.678 101.735 127.98H104.207C104.207 128.425 104.309 128.818 104.514 129.16C104.726 129.495 105.02 129.758 105.396 129.949C105.779 130.141 106.216 130.236 106.708 130.236C107.228 130.236 107.676 130.144 108.052 129.959C108.428 129.775 108.715 129.501 108.913 129.139C109.118 128.777 109.221 128.339 109.221 127.827C109.221 127.246 109.108 126.774 108.882 126.412C108.657 126.049 108.335 125.783 107.918 125.612C107.501 125.434 107.009 125.345 106.442 125.345H104.965Z" fill="white"/>
<path d="M96.9893 101.704C96.9893 101.142 96.79 100.708 96.3916 100.403C95.999 100.099 95.2871 99.791 94.2559 99.4805C93.2246 99.1699 92.4043 98.8242 91.7949 98.4434C90.6289 97.7109 90.0459 96.7559 90.0459 95.5781C90.0459 94.5469 90.4648 93.6973 91.3027 93.0293C92.1465 92.3613 93.2393 92.0273 94.5811 92.0273C95.4717 92.0273 96.2656 92.1914 96.9629 92.5195C97.6602 92.8477 98.208 93.3164 98.6064 93.9258C99.0049 94.5293 99.2041 95.2002 99.2041 95.9385H96.9893C96.9893 95.2705 96.7783 94.749 96.3564 94.374C95.9404 93.9932 95.3428 93.8027 94.5635 93.8027C93.8369 93.8027 93.2715 93.958 92.8672 94.2686C92.4688 94.5791 92.2695 95.0127 92.2695 95.5693C92.2695 96.0381 92.4863 96.4307 92.9199 96.7471C93.3535 97.0576 94.0684 97.3623 95.0645 97.6611C96.0605 97.9541 96.8604 98.291 97.4639 98.6719C98.0674 99.0469 98.5098 99.4805 98.791 99.9727C99.0723 100.459 99.2129 101.03 99.2129 101.687C99.2129 102.753 98.8027 103.603 97.9824 104.235C97.168 104.862 96.0605 105.176 94.6602 105.176C93.7344 105.176 92.8818 105.006 92.1025 104.666C91.3291 104.32 90.7256 103.846 90.292 103.242C89.8643 102.639 89.6504 101.936 89.6504 101.133H91.874C91.874 101.859 92.1143 102.422 92.5947 102.82C93.0752 103.219 93.7637 103.418 94.6602 103.418C95.4336 103.418 96.0137 103.263 96.4004 102.952C96.793 102.636 96.9893 102.22 96.9893 101.704ZM110.41 93.9961H106.42V105H104.214V93.9961H100.259V92.2031H110.41V93.9961ZM119.577 99.2871H114.321V103.225H120.465V105H112.098V92.2031H120.403V93.9961H114.321V97.5293H119.577V99.2871ZM124.499 100.245V105H122.275V92.2031H127.171C128.601 92.2031 129.734 92.5752 130.572 93.3193C131.416 94.0635 131.838 95.0479 131.838 96.2725C131.838 97.5264 131.425 98.502 130.599 99.1992C129.778 99.8965 128.627 100.245 127.145 100.245H124.499ZM124.499 98.4609H127.171C127.962 98.4609 128.565 98.2764 128.981 97.9072C129.397 97.5322 129.605 96.9932 129.605 96.29C129.605 95.5986 129.395 95.0479 128.973 94.6377C128.551 94.2217 127.971 94.0078 127.232 93.9961H124.499V98.4609Z" fill="white"/>
<path d="M193.2 63.0621C204.781 51.7097 204.781 33.3039 193.2 21.9516C181.62 10.5992 162.844 10.5992 151.264 21.9516C139.684 33.3039 139.684 51.7097 151.264 63.0621C162.844 74.4144 181.62 74.4144 193.2 63.0621Z" fill="white"/>
<path d="M177.563 53.8925H164.904C164.749 53.8883 164.595 53.915 164.451 53.9712C164.307 54.0274 164.176 54.1118 164.067 54.2192C163.957 54.3267 163.871 54.4549 163.814 54.5961C163.756 54.7373 163.729 54.8885 163.733 55.0404C163.729 55.1937 163.756 55.3463 163.813 55.4892C163.87 55.6321 163.956 55.7623 164.065 55.8722C164.174 55.9821 164.305 56.0694 164.449 56.1291C164.593 56.1887 164.748 56.2193 164.904 56.2193H168.544V56.5605C168.544 57.0871 168.757 57.5921 169.137 57.9645C169.517 58.3369 170.032 58.546 170.569 58.546H171.93C172.197 58.5502 172.462 58.5018 172.71 58.4035C172.958 58.3052 173.183 58.159 173.372 57.9738C173.561 57.7886 173.71 57.5681 173.81 57.3253C173.91 57.0825 173.96 56.8224 173.955 56.5605V56.2193H177.563C177.882 56.2193 178.188 56.0951 178.414 55.874C178.639 55.6529 178.766 55.353 178.766 55.0404C178.766 54.887 178.735 54.7352 178.674 54.5938C178.613 54.4525 178.524 54.3246 178.412 54.2176C178.3 54.1106 178.167 54.0267 178.021 53.9708C177.875 53.915 177.72 53.8884 177.563 53.8925Z" fill="url(#paint1_linear_1120_283)"/>
<path d="M179.969 27.1189C177.37 24.8692 173.973 23.7123 170.511 23.8983C167.049 24.0843 163.801 25.5982 161.469 28.1128C159.137 30.6274 157.907 33.9407 158.047 37.3366C158.186 40.7325 159.683 43.9381 162.215 46.2607C162.93 46.7922 163.512 47.4762 163.918 48.261C164.324 49.0457 164.542 49.9106 164.556 50.7902V51.2246C164.556 51.4961 164.666 51.7565 164.862 51.9485C165.058 52.1405 165.324 52.2484 165.601 52.2484H176.709C176.986 52.2484 177.252 52.1405 177.447 51.9485C177.643 51.7565 177.753 51.4961 177.753 51.2246V50.7902C177.775 49.9119 177.996 49.0493 178.401 48.2656C178.806 47.4819 179.385 46.7969 180.095 46.2607C181.442 45.0566 182.517 43.5904 183.253 41.9558C183.988 40.3212 184.368 38.554 184.368 36.7674C184.362 34.9471 183.968 33.1482 183.211 31.4863C182.453 29.8245 181.349 28.3367 179.969 27.1189ZM169.81 44.8336L165.379 40.4902L167.436 38.2876L169.652 40.4592L177.089 33.1686L179.399 35.4334L169.81 44.8336Z" fill="url(#paint2_linear_1120_283)"/>
<defs>
<filter id="filter0_d_1120_283" x="0" y="8" width="212" height="208" filterUnits="userSpaceOnUse" color-interpolation-filters="sRGB">
<feFlood flood-opacity="0" result="BackgroundImageFix"/>
<feColorMatrix in="SourceAlpha" type="matrix" values="0 0 0 0 0 0 0 0 0 0 0 0 0 0 0 0 0 0 127 0" result="hardAlpha"/>
<feOffset dy="4"/>
<feGaussianBlur stdDeviation="2"/>
<feComposite in2="hardAlpha" operator="out"/>
<feColorMatrix type="matrix" values="0 0 0 0 0 0 0 0 0 0 0 0 0 0 0 0 0 0 0.25 0"/>
<feBlend mode="normal" in2="BackgroundImageFix" result="effect1_dropShadow_1120_283"/>
<feBlend mode="normal" in="SourceGraphic" in2="effect1_dropShadow_1120_283" result="shape"/>
</filter>
<linearGradient id="paint0_linear_1120_283" x1="7704.92" y1="11581.3" x2="18403.6" y2="11581.3" gradientUnits="userSpaceOnUse">
<stop stop-color="#ED5565"/>
<stop offset="1" stop-color="#6A82FB"/>
</linearGradient>
<linearGradient id="paint1_linear_1120_283" x1="857.052" y1="380.571" x2="1825.92" y2="380.571" gradientUnits="userSpaceOnUse">
<stop stop-color="#ED5565"/>
<stop offset="1" stop-color="#6A82FB"/>
</linearGradient>
<linearGradient id="paint2_linear_1120_283" x1="1372.44" y1="2015.13" x2="3069.5" y2="2015.13" gradientUnits="userSpaceOnUse">
<stop stop-color="#ED5565"/>
<stop offset="1" stop-color="#6A82FB"/>
</linearGradient>
</defs>
</svg>

<svg width="215" height="216" fill="none" xmlns="http://www.w3.org/2000/svg"><g filter="url(#a)"><path d="M208 108c0 19.8-6 39.1-17.2 55.6a101.6 101.6 0 0 1-45.8 36.8A103.9 103.9 0 0 1 34 178.7a98.2 98.2 0 0 1-22.1-109A100.5 100.5 0 0 1 49.3 25C66.1 13.9 85.8 8 106 8v99.8l102 .2Z" fill="#ED5565"/></g><path d="M106 190c45.3 0 82-36.3 82-81s-36.7-81-82-81-82 36.3-82 81 36.7 81 82 81Z" fill="#fff"/><path d="M168.7 0A42.2 42.2 0 0 0 131 36v.4a17.3 17.3 0 0 1-18.8 15.4 57.2 57.2 0 0 0-57.6 31.9 56.6 56.6 0 0 0 41.8 80.5 57.2 57.2 0 0 0 66.3-62.1A17.3 17.3 0 0 1 178 83.3h.5A42 42 0 0 0 214.7 37 41.8 41.8 0 0 0 169 .2l-.3-.2Z" fill="url(#b)"/><path d="M99.9 123.3v2.4c0 1.2-.2 2.2-.4 3-.2.8-.5 1.5-1 2-.4.5-1 1-1.5 1.1a5.7 5.7 0 0 1-3.6.1 4 4 0 0 1-2.5-1.9 7 7 0 0 1-.6-1.8 12 12 0 0 1-.2-2.5v-2.4c0-1.2 0-2.2.3-3 .2-.8.6-1.5 1-2s1-.9 1.5-1a5.6 5.6 0 0 1 3.7-.1 3.8 3.8 0 0 1 2.4 1.8c.3.5.5 1.1.6 1.8.2.7.3 1.5.3 2.5Zm-2.5 2.8v-3.2l-.1-1.6c0-.4-.2-.8-.3-1.1l-.5-.8-.7-.4-.8-.2-1 .2c-.4.2-.6.4-.8.7l-.5 1.3a10 10 0 0 0-.2 2v3c0 .7 0 1.2.2 1.7 0 .4.1.8.3 1.1 0 .4.3.6.5.8l.6.5.9.1c.4 0 .7 0 1-.2.3-.1.6-.4.8-.7.2-.3.3-.8.4-1.3l.2-2Zm7.6-2.7h1.4c.6 0 1 0 1.5-.3l.8-.8c.2-.3.3-.7.3-1.2s0-.9-.3-1.2c-.1-.4-.4-.6-.7-.8-.4-.2-.8-.3-1.3-.3l-1.2.3a2 2 0 0 0-1.1 1.9h-2.5c0-.8.2-1.5.6-2.2.4-.6 1-1 1.7-1.4.7-.4 1.6-.5 2.5-.5 1 0 1.8.1 2.5.4.7.4 1.3.8 1.7 1.5.4.6.6 1.4.6 2.3 0 .4-.1.9-.3 1.3l-.9 1.2-1.5.9c-.5.2-1.2.3-2 .3H105v-1.4Zm0 2V124h1.8c.9 0 1.6 0 2.3.3a4 4 0 0 1 1.5.9c.4.3.6.7.8 1.2.2.4.3 1 .3 1.4 0 .7-.1 1.3-.4 1.9-.2.5-.6 1-1 1.4l-1.6.8a6.6 6.6 0 0 1-3.9 0 5 5 0 0 1-1.6-.8 4 4 0 0 1-1-1.3 4 4 0 0 1-.5-1.8h2.5l.3 1.2c.2.3.5.6.9.7.4.2.8.3 1.3.3s1 0 1.4-.2a2.6 2.6 0 0 0 1.2-2.1c0-.7-.2-1.1-.4-1.5a2 2 0 0 0-1-.8c-.4-.2-.9-.3-1.5-.3H105ZM97 101.7c0-.6-.2-1-.6-1.3a7 7 0 0 0-2.1-1c-1-.2-1.9-.6-2.5-1-1.2-.7-1.8-1.6-1.8-2.8 0-1 .5-1.9 1.3-2.6.8-.6 2-1 3.3-1 .9 0 1.7.2 2.4.5s1.2.8 1.6 1.4c.4.6.6 1.3.6 2H97a2 2 0 0 0-.6-1.5c-.5-.4-1-.6-1.8-.6s-1.3.2-1.7.5c-.4.3-.6.7-.6 1.3 0 .4.2.8.6 1.1.5.4 1.2.7 2.2 1 1 .3 1.8.6 2.4 1a3.4 3.4 0 0 1 1.7 3c0 1-.4 1.9-1.2 2.5-.8.7-2 1-3.3 1-1 0-1.8-.2-2.6-.5-.8-.4-1.4-.9-1.8-1.5-.4-.6-.6-1.3-.6-2h2.2c0 .7.2 1.2.7 1.6.5.4 1.2.6 2 .6s1.4-.1 1.8-.4c.4-.4.6-.8.6-1.3Zm13.4-7.7h-4v11h-2.2V94h-4v-1.8h10.2V94Zm9.2 5.3h-5.3v4h6.2v1.7H112V92.2h8.3V94h-6v3.5h5.2v1.8Zm4.9 1v4.7h-2.2V92.2h4.9a5 5 0 0 1 3.4 1.1c.8.8 1.2 1.7 1.2 3 0 1.2-.4 2.2-1.2 2.9-.8.7-2 1-3.5 1h-2.6Zm0-1.8h2.7c.8 0 1.4-.2 1.8-.6.4-.4.6-1 .6-1.6 0-.7-.2-1.3-.6-1.7-.4-.4-1-.6-1.8-.6h-2.7v4.5ZM193.2 63a28.7 28.7 0 0 0 0-41 30 30 0 0 0-42 0 28.7 28.7 0 0 0 0 41 30 30 0 0 0 42 0Z" fill="#fff"/><path d="M177.6 53.9h-12.7a1.2 1.2 0 0 0-.8.3 1.1 1.1 0 0 0-.4.8 1.1 1.1 0 0 0 .4.9 1.2 1.2 0 0 0 .8.3h3.6v.4c0 .5.3 1 .6 1.4.4.3 1 .5 1.5.5h1.3a2 2 0 0 0 1.5-.5 2 2 0 0 0 .6-1.4v-.4h3.6c.3 0 .6-.1.8-.3a1.2 1.2 0 0 0 .3-1.3 1.2 1.2 0 0 0-.7-.6l-.4-.1Z" fill="url(#c)"/><path d="M180 27.1a13.4 13.4 0 0 0-18.5 1 12.8 12.8 0 0 0 .7 18.2 5.8 5.8 0 0 1 2.4 4.5v.4c0 .3 0 .6.3.7.2.2.4.3.7.3h11.1c.3 0 .6 0 .7-.3.2-.1.4-.4.4-.7v-.4a5.8 5.8 0 0 1 2.3-4.5 12.9 12.9 0 0 0 4.3-9.5A12.8 12.8 0 0 0 180 27Zm-10.2 17.7-4.4-4.3 2-2.2 2.3 2.2 7.4-7.3 2.3 2.2-9.6 9.4Z" fill="url(#d)"/><defs><linearGradient id="b" x1="7704.9" y1="11581.3" x2="18403.6" y2="11581.3" gradientUnits="userSpaceOnUse"><stop stop-color="#ED5565"/><stop offset="1" stop-color="#6A82FB"/></linearGradient><linearGradient id="c" x1="857.1" y1="380.6" x2="1825.9" y2="380.6" gradientUnits="userSpaceOnUse"><stop stop-color="#ED5565"/><stop offset="1" stop-color="#6A82FB"/></linearGradient><linearGradient id="d" x1="1372.4" y1="2015.1" x2="3069.5" y2="2015.1" gradientUnits="userSpaceOnUse"><stop stop-color="#ED5565"/><stop offset="1" stop-color="#6A82FB"/></linearGradient><filter id="a" x="0" y="8" width="212" height="208" filterUnits="userSpaceOnUse" color-interpolation-filters="sRGB"><feFlood flood-opacity="0" result="BackgroundImageFix"/><feColorMatrix in="SourceAlpha" values="0 0 0 0 0 0 0 0 0 0 0 0 0 0 0 0 0 0 127 0" result="hardAlpha"/><feOffset dy="4"/><feGaussianBlur stdDeviation="2"/><feComposite in2="hardAlpha" operator="out"/><feColorMatrix values="0 0 0 0 0 0 0 0 0 0 0 0 0 0 0 0 0 0 0.25 0"/><feBlend in2="BackgroundImageFix" result="effect1_dropShadow_1120_283"/><feBlend in="SourceGraphic" in2="effect1_dropShadow_1120_283" result="shape"/></filter></defs></svg>
